resources/haticons/SVG/table2.svg

<!-- Generated by IcoMoon.io -->
<svg version="1.1" xmlns="http://www.w3.org/2000/svg" width="24" height="24" viewBox="0 0 24 24">
<title>table2</title>
<path d="M0 1.5v21h24v-21h-24zM9 15v-4.5h6v4.5h-6zM15 16.5v4.5h-6v-4.5h6zM15 4.5v4.5h-6v-4.5h6zM7.5 4.5v4.5h-6v-4.5h6zM1.5 10.5h6v4.5h-6v-4.5zM16.5 10.5h6v4.5h-6v-4.5zM16.5 9v-4.5h6v4.5h-6zM1.5 16.5h6v4.5h-6v-4.5zM16.5 21v-4.5h6v4.5h-6z"></path>
</svg>

<svg xmlns="http://www.w3.org/2000/svg" width="24" height="24"><path d="M0 1.5v21h24v-21H0zM9 15v-4.5h6V15H9zm6 1.5V21H9v-4.5h6zm0-12V9H9V4.5h6zm-7.5 0V9h-6V4.5h6zm-6 6h6V15h-6v-4.5zm15 0h6V15h-6v-4.5zm0-1.5V4.5h6V9h-6zm-15 7.5h6V21h-6v-4.5zm15 4.5v-4.5h6V21h-6z"/></svg>
